X: 1
T: String Quartet in D Major opus 33 no 6 mvt 1
C: Franz Joseph Haydn
%%abc-version 2.0
%%abcx-abcm2ps-target-version 5.9.1 (29 Sep 2008)
%%abc-creator hum2abc beta
%%abcx-conversion-date 2021/02/14 14:38:23
%%abc-copyright Copyright (c) 1994, 2000 Center for Computer Assisted Research in the Humanities
%%abc-edited-by Frances Bennion
%%abcx-initial-encoding-date 1997/04/15
%%gracespace 0 6 6
%%humdrum-veritas 4160961359
%%humdrum-veritas-data 1218604092
%%linebreak <none>
%%barnumbers 0
L: 1/8
M: 6/8
N: Derived from op33n6-01.krn
Q: "Vivace assai"
%%staves [1 2 3 4]
V: 1
V: 2
V: 3 clef=alto
V: 4 clef=bass
K: D
[V:1]z4 za [I:setbarnb1]|
[V:2]z4 zz |
[V:3]z4 zz |
[V:4]z4 zz |
[V:1]ad'b aza |
[V:2]F2G FzA |
[V:3]z4 zF |
[V:4]D,4 z2 |
[V:1]agf ezg |
[V:2]A4 z2 |
[V:3]FED CzD |
[V:4]z4 zB, |
[V:1]gfe dzd |
[V:2]z4 zd |
[V:3]D4 zF |
[V:4]B,A,G, F,z2 |
[V:1]e2f dza |
[V:2]d2c dz2 |
[V:3]G2A Dz2 |
[V:4]z6 |
[V:1]a/b/c'/d'/c'/b/ aza |
[V:2]F2G FzA |
[V:3]z4 zF |
[V:4]D,4 z2 |
[V:1]agf ezg |
[V:2]A4 z2 |
[V:3]FED CzD |
[V:4]z4 zB, |
[V:1]g/a/f/g/e/f/ dzd |
[V:2]z4 zd |
[V:3]D4 zF |
[V:4]B,A,G, F,z2 |
[V:1]e2f dzd |
[V:2]d2c dzF |
[V:3]G2A D2z |
[V:4]z3 D3- |
[V:1]e2f d2e |
[V:2]G2A F2G |
[V:3]z6 |
[V:4]D6- |
[V:1]f2g e2f |
[V:2]A2B G2A |
[V:3]z6 |
[V:4]D6- |
[V:1]g2a fed |
[V:2]B3 =c3 |
[V:3]D3 A3 |
[V:4]D6- |
[V:1]g2a fed |
[V:2]B3 =c3 |
[V:3]G3 A3 |
[V:4]D6- |
[V:1]g2b gfg |
[V:2]B3 c3 |
[V:3]G3 E3 |
[V:4]D6 |
[V:1]f2a dcd |
[V:2]dDE F3 |
[V:3]F2E D2C |
[V:4]D2C B,2A, |
[V:1]e2g cBc |
[V:2]B2G EDE |
[V:3]B,3 G,3 |
[V:4]G,2E, A,3 |
[V:1]f/a/g/b/a dcd |
[V:2]FDE F3 |
[V:3]F2E D2C |
[V:4]D2C B,2A, |
[V:1]e/g/f/a/g cBc |
[V:2]B2G EDE |
[V:3]B,2G G3 |
[V:4]G,2E, A,2A,, |
[V:1]d2A Fza |
[V:2]F2A Fzf |
[V:3]F2A, F,z2 |
[V:4]D,2A,, F,,z2 |
[V:1]g2e cz2 |
[V:2]e2c Gz2 |
[V:3]z4 zG |
[V:4]z4 zC |
[V:1]z4 za |
[V:2]z4 zf |
[V:3]F2E Dz2 |
[V:4]D2A, F,z2 |
[V:1]fge cz2 |
[V:2]^dec Gz2 |
[V:3]z4 zG |
[V:4]z4 zC |
[V:1]z4 zd' |
[V:2]z6 |
[V:3]^EF=E Dz2 |
[V:4]CDA, F,z2 |
[V:1]^ab=a fg^d |
[V:2]d3- d2=c |
[V:3]z4 zF |
[V:4]G,2A, B,2A, |
[V:1]eb^d ebd |
[V:2]B2=c B2c |
[V:3]G2F G2F |
[V:4]G,2A, G,2A, |
[V:1]eba gfe |
[V:2]B4 AG |
[V:3]G2>E2 FG |
[V:4]G,6 |
[V:1]d3 c2e |
[V:2]F3 E2z |
[V:3]A3 A,2z |
[V:4]A,6 |
[V:1]e/f/^g/a/g/f/ eac' |
[V:2]c2z3 A |
[V:3]E2z3 A, |
[V:4]A,,2z4 |
[V:1]d'4 b^g |
[V:2]^G/A/B/c/B/A/ GBd |
[V:3]E/F/^G/A/G/F/ EGB |
[V:4]z4 zE, |
[V:1]a2>>b2 c'/d'/c'/b/ |
[V:2]c/d/e/f/e/d/ c2^G |
[V:3]A3 C/D/E/F/E/D/ |
[V:4]A,/B,/C/D/C/B,/ A,2E, |
[V:1]a3 a/b/c'/b/a/^g/ |
[V:2]A/B/c/d/c/B/ A2e |
[V:3]C6 |
[V:4]F,/^G,/A,/B,/A,/G,/ F,2C, |
[V:1]f3 d'3 |
[V:2]f/^g/a/g/f/e/ d/e/f/e/d/c/ |
[V:3]A,3 F3 |
[V:4]D,/E,/F,/E,/D,/C,/ B,,/C,/D,/C,/B,,/A,,/ |
[V:1]d'/e'/f'/e'/d' c'/d'/e'/d'/c' |
[V:2]B/c/d/c/B A/B/c/B/A |
[V:3]E6 |
[V:4]^G,,3 A,,3 |
[V:1]b/c'/d'/c'/b bc'a |
[V:2]F6 |
[V:3]F3 ^D3 |
[V:4]D,3 ^D,3 |
[V:1]e^gb e'e'e' |
[V:2]E2z4 |
[V:3]E2z4 |
[V:4]E,2z4 |
[V:1]e'6 |
[V:2]EAc dB^G |
[V:3]z6 |
[V:4]z6 |
[V:1]e'6- |
[V:2]A3 B3 |
[V:3]EAc dB^G |
[V:4]z6 |
[V:1]e'6 |
[V:2]c2>^G2 Bd |
[V:3]A3 B3 |
[V:4]E,A,C DB,^G, |
[V:1]eac' d'b^g |
[V:2]c2z4 |
[V:3]c2>^G2 Bd |
[V:4]A,3 B,3 |
[V:1]e'6- |
[V:2]E^GA cea |
[V:3]c3 A3 |
[V:4]C6 |
[V:1]e'3 d'3- |
[V:2]f4 ed |
[V:3]F,A,D F^GA |
[V:4]D,F,A, DEF |
[V:1]d'bd' c'ae |
[V:2]e6 |
[V:3]^G3 A3 |
[V:4]E3 A,3 |
[V:1]dfb Bd^g |
[V:2]f3 d3 |
[V:3]FDB, DB,^G, |
[V:4]D,3 E,3 |
[V:1]Ace ac'e' |
[V:2]c2z4 |
[V:3]A,2z4 |
[V:4]A,2z4 |
[V:1]e'3 ^d'3 |
[V:2]^Ace F2z |
[V:3]z2>F2 A^d |
[V:4]F,3 B,3 |
[V:1]d'3 c'3 |
[V:2]^GBd E2z |
[V:3]e2z EAc |
[V:4]E,3 A,3 |
[V:1]bd'^a bd'a |
[V:2]F2G F2G |
[V:3]d2z4 |
[V:4]D2E D2E |
[V:1]bdf ^abd' |
[V:2]F2z4 |
[V:3]z6 |
[V:4]D2z4 |
[V:1]e3 b3 |
[V:2]c2A ^GFG |
[V:3]z3 E,3 |
[V:4]E,A,C DCD |
[V:1]a2A A^GA |
[V:2]A6- |
[V:3]A,3 C3 |
[V:4]C2z4 |
[V:1]B2B BAB |
[V:2]A3 ^G3 |
[V:3]D3 E3 |
[V:4]z6 |
[V:1]c2A A^GA |
[V:2]A6- |
[V:3]A,2z4 |
[V:4]z3 C3 |
[V:1]B2B BAB |
[V:2]A3 G3- |
[V:3]z6 |
[V:4]D3 E3 |
[V:1]c2c dcd |
[V:2]G2>=F2 ED |
[V:3]E2>D2 E=F |
[V:4]A,6- |
[V:1]e2e =fed |
[V:2]C2>D2 E=F |
[V:3]E3 D3 |
[V:4]A,6 |
[V:1]a6- |
[V:2]E2C DE=F |
[V:3]C2E D3 |
[V:4]A,2A, =F,E,D, |
[V:1]a6- |
[V:2]E2C DE=F |
[V:3]C2E D3 |
[V:4]A,2A, =F,E,D, |
[V:1]a6- |
[V:2]E6- |
[V:3]C6- |
[V:4]A,,6- |
[V:1]a3- a2=F |
[V:2]E3- E2=F |
[V:3]C3- C2=F |
[V:4]A,,3- A,,2=F, |
[V:1]=F2=C A,z=c' |
[V:2]=F2=C A,2a |
[V:3]=F2=C A,z2 |
[V:4]=F,2=C, A,,z2 |
[V:1]=c'd'a _bz_B |
[V:2]a_bf gz_B |
[V:3]z4 z_B |
[V:4]z4 z_B, |
[V:1]_B2G Ez_b |
[V:2]_B2G Ezg |
[V:3]_B2G Ez2 |
[V:4]_B,2G, E,z2 |
[V:1]_b=c'g az2 |
[V:2]gae =f2f |
[V:3]z6 |
[V:4]z6 |
[V:1]z6 |
[V:2]=f2=c A3 |
[V:3]z6 |
[V:4]z2_E E=F=C |
[V:1]z2=f fg=c |
[V:2]_B3 =c3 |
[V:3]z4 z=F |
[V:4]D=F_B, A,3 |
[V:1]d=f_B ^f3 |
[V:2]d3 A2=c |
[V:3]=F2d =c_eA |
[V:4]_B,3 D,3 |
[V:1]g3 ^g3 |
[V:2]_B2d d=f=B |
[V:3]_BdG =B2d |
[V:4]G,3 E,3 |
[V:1]a2=c' c'ba |
[V:2]=ceA ABc |
[V:3]=c2A ^D3 |
[V:4]A,3 =F,3 |
[V:1]e'6- |
[V:2]^G2G AB=c |
[V:3]E2B A3 |
[V:4]E,2E, =C,B,,A,, |
[V:1]e'6 |
[V:2]B2^G AB=c |
[V:3]^G2B A3 |
[V:4]E,2E, =C,B,,A,, |
[V:1]e'3- e'2e |
[V:2]B3- B2z |
[V:3]^G3- G2z |
[V:4]E,3- E,2z |
[V:1]eaf eze |
[V:2]c2d czE |
[V:3]z4 zC |
[V:4]A,,4 z2 |
[V:1]edc Bzd |
[V:2]E3- E2z |
[V:3]CB,A, ^G,zA, |
[V:4]z4 zF, |
[V:1]dcB AzA |
[V:2]z4 zA |
[V:3]A,4 zC |
[V:4]F,E,D, C,z2 |
[V:1]B2c Aaa |
[V:2]A2^G A2z |
[V:3]D2E A,2A |
[V:4]z4 zC |
[V:1]a6- |
[V:2]z6 |
[V:3]B2c A2B |
[V:4]D2E C2D |
[V:1]a6- |
[V:2]z6 |
[V:3]c2d B2c |
[V:4]E2F D2E |
[V:1]a6 |
[V:2]z2A gfg |
[V:3]d2e c3 |
[V:4]F2G EDE |
[V:1]a/b/c'/d'/c'/b/ aza |
[V:2]f/g/a/b/a/g/ fzA |
[V:3]d2z3 F |
[V:4]D4 z2 |
[V:1]agf ezg |
[V:2]A2A z3 |
[V:3]FED CzD |
[V:4]z4 zB, |
[V:1]g/a/f/g/e/f/ dzd |
[V:2]z4 zd |
[V:3]D3- D2F |
[V:4]B,A,G, F,z2 |
[V:1]e2f dzd |
[V:2]d2c dzF |
[V:3]G2A Dz2 |
[V:4]z3 D3 |
[V:1]e2f d2e |
[V:2]G2A F2G |
[V:3]z6 |
[V:4]D6- |
[V:1]f2g e2f |
[V:2]A2B G2A |
[V:3]z6 |
[V:4]D6- |
[V:1]g2a fed |
[V:2]B3 =c3 |
[V:3]D3 A3 |
[V:4]D6- |
[V:1]g2a fed |
[V:2]_B3 =c3 |
[V:3]G3 A3 |
[V:4]D6 |
[V:1]g2_a =f_ed |
[V:2]_B3- B3 |
[V:3]G3 _A3 |
[V:4]_E3 =F3 |
[V:1]_e3 =f3 |
[V:2]_b2=c' _aga |
[V:3]_B3 d3 |
[V:4]G2z4 |
[V:1]g2_a =f_ef |
[V:2]g2z4 |
[V:3]_e_BB B3 |
[V:4]_B,2=C _A,G,A, |
[V:1]_e3 d3 |
[V:2]_b2=c' _aga |
[V:3]_B6- |
[V:4]G,2_A, =F,_E,F, |
[V:1]d2_e =cBc |
[V:2]g6 |
[V:3]B3 G3 |
[V:4]_E,6 |
[V:1]=c3 B3 |
[V:2]=f2_a fef |
[V:3]_A3 D3 |
[V:4]D,3 G,3 |
[V:1]_B2_d BAB |
[V:2]e6 |
[V:3]E3 G3 |
[V:4]=C6 |
[V:1]_B6 |
[V:2]e2g ede |
[V:3]G2_B G=FG |
[V:4]C6 |
[V:1]A3 a3 |
[V:2]e2=f dcd |
[V:3]G2A =FEF |
[V:4]D6 |
[V:1]_b2d' bab |
[V:2]d3 e3 |
[V:3]=F3 G3 |
[V:4]G,3 =C,3 |
[V:1]a6 |
[V:2]e2=f dcd |
[V:3]A3 A,3 |
[V:4]=F,6 |
[V:1]^g3 a3 |
[V:2]d2e =cBc |
[V:3]B,3 =C3 |
[V:4]E,6 |
[V:1]f3 g3 |
[V:2]=c2d BAB |
[V:3]A,3 B,3 |
[V:4]D,6 |
[V:1]g2b gfg |
[V:2]c6 |
[V:3]E6 |
[V:4]D,6 |
[V:1]f2a dcd |
[V:2]dDE F3 |
[V:3]F2E D2C |
[V:4]D2C B,2A, |
[V:1]e2g cBc |
[V:2]B2G EDE |
[V:3]B,3 G,3 |
[V:4]G,2E, A,3 |
[V:1]f/a/g/b/a dcd |
[V:2]FDE F3 |
[V:3]F2E D2C |
[V:4]D2C B,2A, |
[V:1]e/g/f/a/g cBc |
[V:2]B2G EDE |
[V:3]B,2G G3 |
[V:4]G,2E, A,2A,, |
[V:1]d2A Fza |
[V:2]F2A Fzf |
[V:3]F2A, F,z2 |
[V:4]D,2A,, F,,z2 |
[V:1]g2e cz2 |
[V:2]e2c Gz2 |
[V:3]z4 zG |
[V:4]z4 zC |
[V:1]z4 za |
[V:2]z4 zf |
[V:3]F2E Dz2 |
[V:4]D2A, F,z2 |
[V:1]fge cz2 |
[V:2]^dec Gz2 |
[V:3]z4 zG |
[V:4]z4 zC |
[V:1]z4 zd' |
[V:2]z6 |
[V:3]^EF=E Dz2 |
[V:4]CDA, F,z2 |
[V:1]^ab=a fgb |
[V:2]z4 zd |
[V:3]z6 |
[V:4]z6 |
[V:1]fgf ^ded |
[V:2]^AB=A FGF |
[V:3]z6 |
[V:4]z4 zB, |
[V:1]e2f g2c |
[V:2]B2A G2E |
[V:3]z6 |
[V:4]F,G,^D, D,E,A, |
[V:1]d2e fzd |
[V:2]A2G F2z |
[V:3]z4 zF, |
[V:4]E,F,C, C,D,z |
[V:1]^AB2 <z2e |
[V:2]z2G ^DEz |
[V:3]G,2z3 ^G, |
[V:4]z6 |
[V:1]=c^c2 <z2f |
[V:2]z2A ^EFz |
[V:3]A,2z3 ^A, |
[V:4]z6 |
[V:1]cdg ^dea |
[V:2]z4 zE |
[V:3]B,2z C2z |
[V:4]z6 |
[V:1]a3 a/b/c'/d'/e'/f'/ |
[V:2]F/G/A/B/A/G/ Fz2 |
[V:3]D/E/F/G/F/E/ Dz2 |
[V:4]z4 zD, |
[V:1]g'2>>e'2 c'/e'/c'/e'/ |
[V:2]c/d/e/f/e/d/ czE |
[V:3]z4 zA, |
[V:4]A,/B,/C/D/C/B,/ A,2z |
[V:1]f'3 a/d'/f'/d'/f'/d'/ |
[V:2]F/G/A/B/A/G/ Fz2 |
[V:3]D/E/F/G/F/E/ Dz2 |
[V:4]D,2z3 D, |
[V:1]g'2>>e'2 c'/e'/c'/e'/ |
[V:2]c/d/e/f/e/d/ cze |
[V:3]z4 zA, |
[V:4]A,/B,/C/D/C/B,/ A,2z |
[V:1]d'3 d'/e'/f'/e'/d'/c'/ |
[V:2]f/g/a/g/f/e/ d2z |
[V:3]D/E/F/E/D/C/ B,/C/D/C/B,/A,/ |
[V:4]D,2z4 |
[V:1]b/c'/d'/c'/b/a/ g/a/b/a/g/f/ |
[V:2]z6 |
[V:3]G,2z4 |
[V:4]G,/A,/B,/A,/G,/F,/ E,/F,/G,/F,/E,/D,/ |
[V:1]e/f/g/f/e/d/ c/d/e/d/c/B/ |
[V:2]z6 |
[V:3]z6 |
[V:4]C,/D,/E,/D,/C,/B,,/ A,,/B,,/C,/B,,/A,,/G,,/ |
[V:1]Adf Beg |
[V:2]AFD BGE |
[V:3]D3 G,3 |
[V:4]F,,3 G,,3 |
[V:1]fad gec |
[V:2]DFD EGE |
[V:3]A,6 |
[V:4]A,,6 |
[V:1]dFA dfa |
[V:2]D2z4 |
[V:3]F,2z4 |
[V:4]D,2z4 |
[V:1]a6- |
[V:2]Adf gec |
[V:3]z6 |
[V:4]z6 |
[V:1]a6- |
[V:2]d3 e3 |
[V:3]A,DF GEC |
[V:4]z6 |
[V:1]a6 |
[V:2]f2>c2 eg |
[V:3]D3 E3 |
[V:4]A,,D,F, G,E,C, |
[V:1]Adf gec |
[V:2]f2z4 |
[V:3]F2>C2 EG |
[V:4]D,3 E,3 |
[V:1]a6- |
[V:2]Acd fdA |
[V:3]F3 D3 |
[V:4]F,6 |
[V:1]a3 g3 |
[V:2]B4 AG |
[V:3]B,DG Bcd |
[V:4]G,,B,,D, G,A,B, |
[V:1]geg fdA |
[V:2]A6 |
[V:3]c3 d3 |
[V:4]A,3 D,3 |
[V:1]GBe EGc |
[V:2]B3 G3 |
[V:3]BGE GEC |
[V:4]G,3 A,3 |
[V:1]DFA dfa |
[V:2]F2z4 |
[V:3]D2z4 |
[V:4]D,2z4 |
[V:1]a3 ^g3 |
[V:2]^DFA B,2z |
[V:3]z2>B,2 D^G |
[V:4]B,,3 E,3 |
[V:1]g3 f3 |
[V:2]CEG A,2z |
[V:3]A2z A,DF |
[V:4]A,,3 D,3 |
[V:1]eg^d ebc |
[V:2]B2=c B2_B |
[V:3]G2A G2G |
[V:4]G,,2z4 |
[V:1]dfc da^d |
[V:2]A2_B A2A |
[V:3]F2G F2F |
[V:4]z6 |
[V:1]eg^d ebc |
[V:2]B2=c B2_B |
[V:3]G2A G2G |
[V:4]z6 |
[V:1]dfc dfa |
[V:2]A2_B A2z |
[V:3]F2G F2A, |
[V:4]z3 F,3 |
[V:1]^g3 =g3 |
[V:2]z2>C2 EG |
[V:3]B,D^G A2z |
[V:4]E,3 A,,3 |
[V:1]fad' bge |
[V:2]A,2z4 |
[V:3]z2>d2 BG |
[V:4]D,3 G,3 |
[V:1]A3 e3 |
[V:2]DFA EGc |
[V:3]F3 G3 |
[V:4]A,3 A,,3 |
[V:1]d2d dcd |
[V:2]d6- |
[V:3]F3 F3 |
[V:4]D,2z4 |
[V:1]e2e ede |
[V:2]d3 c3 |
[V:3]G3 A3 |
[V:4]z6 |
[V:1]f2d dcd |
[V:2]d3 F3 |
[V:3]D2z4 |
[V:4]D6 |
[V:1]e2e fef |
[V:2]G3 A3 |
[V:3]z3 D3 |
[V:4]C3 =C3 |
[V:1]g2^g gfg |
[V:2]D6 |
[V:3]D3 =F2D |
[V:4]B,3 _B,3 |
[V:1]a6- |
[V:2]C2C DE=F |
[V:3]E3 D3 |
[V:4]A,2A, =F,E,D, |
[V:1]a6- |
[V:2]E2C DE=F |
[V:3]C2E D3 |
[V:4]A,2A, =F,E,D, |
[V:1]a6- |
[V:2]E6- |
[V:3]C6- |
[V:4]A,,6- |
[V:1]a3- a2z |
[V:2]E3- E2z |
[V:3]C3- C2z |
[V:4]A,,3- A,,2z |
[V:1]a2c' c'bc' |
[V:2]C3 e3 |
[V:3]E3 A3 |
[V:4]A,3 G,3 |
[V:1]d'3 b3 |
[V:2]f2d b2G |
[V:3]A3 D3 |
[V:4]F,A,D G,B,D |
[V:1]afa gec |
[V:2]FAF EGE |
[V:3]D3 A,3 |
[V:4]A,3 A,,3 |
[V:1]d2z3 a |
[V:2]D2z3 f |
[V:3]D2z4 |
[V:4]D,2z4 |
[V:1]g2e cz2 |
[V:2]e2c Gz2 |
[V:3]z4 zG |
[V:4]z4 zC |
[V:1]z4 za |
[V:2]z4 zf |
[V:3]F2E Dz2 |
[V:4]D2A, F,z2 |
[V:1]fge cz2 |
[V:2]^dec Gz2 |
[V:3]z4 zG |
[V:4]z4 zC |
[V:1]z4 zd' |
[V:2]z6 |
[V:3]^EF=E Dz2 |
[V:4]CDA, F,z2 |
[V:1]^ab^d efg |
[V:2]D2z4 |
[V:3]z6 |
[V:4]G,2z4 |
[V:1]A3 e3 |
[V:2]FAF GEC |
[V:3]DFD CEG |
[V:4]A,3 A,,3 |
[V:1]d2z3 d |
[V:2]D2z4 |
[V:3]F2z3 B, |
[V:4]D,,6- |
[V:1]=cdB A2c |
[V:2]z6 |
[V:3]A,2G, F,3 |
[V:4]D,,6- |
[V:1]^A2B G2B |
[V:2]z4 zD |
[V:3]G,2A, B,2G, |
[V:4]D,,6- |
[V:1]BGE GEC |
[V:2]C6 |
[V:3]G,6- |
[V:4]D,,6- |
[V:1]C6 |
[V:2]E6 |
[V:3]G,6 |
[V:4]D,,6- |
[V:1]D2z4 |]
[V:2]D2z4 |]
[V:3]F,2z4 |]
[V:4]D,,2z4 |]

